X: 74
T: Cantare amantis es
C: Anonim
L: 1/4
M: 2/1
N: Derived from pl-kk--kk-i-11--011_anonim--cantare-amantis-es.krn
%%staves {1 2}
V: 1
V: 2 clef=bass
K: C
[V:1] z8 [I:setbarnb 1][|] 
[V:2] z4 [|] 
[V:1] z4 [|] 
[V:2] C,4G,4 [|] 
[V:1] G4c4 [|] 
[V:2] E,2E,2A,4 [|] 
[V:1] B2G2G3F/G/ [|] 
[V:2] G,4C,2E,2 [|] 
[V:1] A2B2c4 [|] 
[V:2] F,2G,2C,4 [|] 
[V:1] z16 [|] 
[V:2] z16 [|] 
[V:1]  [|] 
[V:2]  [|] 
[V:1] z4z2C2 [|] 
[V:2] z2G,,2C,4 [|] 
[V:1] G4A4 [|] 
[V:2] B,,2C,2A,,4 [|] 
[V:1] D2d2c4 [|] 
[V:2] G,,2G,,2C,3D, [|] 
[V:1] B4A4 [|] 
[V:2] E,4A,,2A,,2 [|] 
[V:1] z16 [|] 
[V:2] A,G,A,^F,G,2E,4 [|] 
[V:1]  [|] 
[V:2] D,2E,>F,G,4 [|] 
[V:1] z2d2B3A/B/ [|] 
[V:2] F,2G,4 [|] 
[V:1] cBAGF4 [|] 
[V:2] C,4D,4 [|] 
[V:1] E4D4 [|] 
[V:2] A,,4D,4 [|] 
[V:1] z4G4 [|] 
[V:2] G,4z4 [|] 
[V:1] z4G4 [|] 
[V:2] z4C,4 [|] 
[V:1] z4z2d2 [|] 
[V:2] z4G,6 [|] 
[V:1] B2e2dcBA [|] 
[V:2] C,2D,2D,2 [|] 
[V:1] G3F/E/F4 [|] 
[V:2] E,3D,/C,/D,4 [|] 
[V:1] E4^F4 [|] 
[V:2] A,,4D,4 [|] 
[V:1] z4z2G2 [|] 
[V:2] z4z2G,,2 [|] 
[V:1] EFD2CCc2 [|] 
[V:2] A,,2B,,2C,2A,,A,, [|] 
[V:1] B2zdBcA2 [|] 
[V:2] G,,2G,,2z2D,2 [|] 
[V:1] G2A2B2^c2 [|] 
[V:2] E,2F,2G,2E,E, [|] 
[V:1] d4G4 [|] 
[V:2] D,4C,4 [|] 
[V:1] [M:3/1]G4G4G4 [|] 
[V:2] [M:3/1]C,4C,4G,,4 [|] 
[V:1] G4>G4E4 [|] 
[V:2] C,4>C,4C,4 [|] 
[V:1] G4A8 [|] 
[V:2] B,,4A,,8 [|] 
[V:1] D12 [|] 
[V:2] G,,12 [|] 
[V:1] E4E4G4 [|] 
[V:2] C,4C,4C,4 [|] 
[V:1] A4>A4A4 [|] 
[V:2] F,4>F,4F,4 [|] 
[V:1] G4G8 [|] 
[V:2] C,4G,,8 [|] 
[V:1] G12 [|] 
[V:2] C,12 [|] 
[V:1] G4c4B4 [|] 
[V:2] C,4A,,4E,4 [|] 
[V:1] ^c4>c4c4 [|] 
[V:2] A,,4>A,,4A,,4 [|] 
[V:1] d4^c8 [|] 
[V:2] D,4A,,8 [|] 
[V:1] d12 [|] 
[V:2] D,12 [|] 
[V:1] x12 [|] 
[V:2] G,,4G,,4C,4 [|] 
[V:1] x12 [|] 
[V:2] F,4>F,4F,4 [|] 
[V:1] x12 [|] 
[V:2] C,4G,,8 [|] 
[V:1] x12 [|] 
[V:2] C,8C,4 [|] 
[V:1] [M:2/1]x8 [|] 
[V:2] [M:2/1]G,,4G,4 [|] 
[V:1] x8 [|] 
[V:2] z8 [|] 
[V:1] x8 [|] 
[V:2] C,4z4 [|] 
[V:1] x8 [|] 
[V:2] G,6C,2 [|] 
[V:1] x8 [|] 
[V:2] D,2D,2E,3D,/C,/ [|] 
[V:1] x8 [|] 
[V:2] D,4A,,4 [|] 
[V:1] x8 [|] 
[V:2] D,4z4 [|] 
[V:1] x8 [|] 
[V:2] z2G,,2A,,2B,,2 [|] 
[V:1] x8 [|] 
[V:2] C,2A,,A,,G,,2G,,2 [|] 
[V:1] x8 [|] 
[V:2] z2D,2E,2F,2 [|] 
[V:1] x8 [|] 
[V:2] G,2E,E,D,4 [|] 
[V:1] x4 ||  
[V:2] C,4 ||  
[V:1] [M:3/1]x12 [|] 
[V:2] [M:3/1]C,4C,4G,,4 [|] 

